X: 15
T: Sporting Paddy
Z: Richard D Cook
S: https://thesession.org/tunes/430#setting49850
R: reel
M: 4/4
L: 1/8
K: Gmaj
EAAA GABG|EAAA G2ED|EAAA GABd|efge dBAG|
EAAA GABG|EAAA G2ED|EAAA GABd|efge d2||
ef|geee gede|geee a2 ba|geee gedg|efge d2 ef|
geee gede|geee a2 ga|bgaf gedg|efge dBAG||

